svgs/thin/house-lock.svg

<svg xmlns="http://www.w3.org/2000/svg" viewBox="0 0 640 512"><!--! Font Awesome Pro 6.6.0 by @fontawesome - https://fontawesome.com License - https://fontawesome.com/license (Commercial License) Copyright 2024 Fonticons, Inc. --><path d="M293.3 2c-3-2.7-7.6-2.7-10.6 0L2.7 250c-3.3 2.9-3.6 8-.7 11.3s8 3.6 11.3 .7L64 217.1 64 448c0 35.3 28.7 64 64 64l264.6 0c-2.9-5-5.1-10.3-6.5-16l-18 0 0-168c0-13.3-10.7-24-24-24l-112 0c-13.3 0-24 10.7-24 24l0 168-80 0c-26.5 0-48-21.5-48-48l0-245.1L288 18.7l181.8 161c4.4-3.4 9.1-6.4 14.1-8.9L293.3 2zM224 496l0-168c0-4.4 3.6-8 8-8l112 0c4.4 0 8 3.6 8 8l0 168-128 0zM528 208c26.5 0 48 21.5 48 48l0 64-96 0 0-64c0-26.5 21.5-48 48-48zm-64 48l0 64-16 0c-17.7 0-32 14.3-32 32l0 128c0 17.7 14.3 32 32 32l160 0c17.7 0 32-14.3 32-32l0-128c0-17.7-14.3-32-32-32l-16 0 0-64c0-35.3-28.7-64-64-64s-64 28.7-64 64zm-16 80l16 0 16 0 96 0 16 0 16 0c8.8 0 16 7.2 16 16l0 128c0 8.8-7.2 16-16 16l-160 0c-8.8 0-16-7.2-16-16l0-128c0-8.8 7.2-16 16-16z"/></svg>

<svg xmlns="http://www.w3.org/2000/svg" viewBox="0 0 640 512"><!--! Font Awesome Pro 6.4.0 by @fontawesome - https://fontawesome.com License - https://fontawesome.com/license (Commercial License) Copyright 2023 Fonticons, Inc. --><path d="M293.3 2c-3-2.7-7.6-2.7-10.6 0L2.7 250c-3.3 2.9-3.6 8-.7 11.3s8 3.6 11.3 .7L64 217.1V448c0 35.3 28.7 64 64 64H392.6c-2.9-5-5.1-10.3-6.5-16H368V328c0-13.3-10.7-24-24-24H232c-13.3 0-24 10.7-24 24V496H128c-26.5 0-48-21.5-48-48V202.9L288 18.7l181.8 161c4.4-3.4 9.1-6.4 14.1-8.9L293.3 2zM224 496V328c0-4.4 3.6-8 8-8H344c4.4 0 8 3.6 8 8V496H224zM528 208c26.5 0 48 21.5 48 48v64H480V256c0-26.5 21.5-48 48-48zm-64 48v64H448c-17.7 0-32 14.3-32 32V480c0 17.7 14.3 32 32 32H608c17.7 0 32-14.3 32-32V352c0-17.7-14.3-32-32-32H592V256c0-35.3-28.7-64-64-64s-64 28.7-64 64zm-16 80h16 16 96 16 16c8.8 0 16 7.2 16 16V480c0 8.8-7.2 16-16 16H448c-8.8 0-16-7.2-16-16V352c0-8.8 7.2-16 16-16z"/></svg>
